client/src/assets/images/icon-pregnancy-dating.svg

<svg viewBox="0 0 122 122" xmlns="http://www.w3.org/2000/svg"><g fill="#fff"><path d="m38.86 63.86a2 2 0 1 0 2 2 2 2 0 0 0 -2-2z"/><path d="m38.86 72.72a2 2 0 1 0 2 2 2 2 0 0 0 -2-2z"/><path d="m38.86 81.58a2 2 0 1 0 2 2 2 2 0 0 0 -2-2z"/><path d="m74.29 55a2 2 0 1 0 2 2 2 2 0 0 0 -2-2z"/><path d="m74.29 63.86a2 2 0 1 0 2 2 2 2 0 0 0 -2-2z"/><path d="m83.14 55a2 2 0 1 0 2 2 2 2 0 0 0 -2-2z"/><path d="m83.14 63.86a2 2 0 1 0 2 2 2 2 0 0 0 -2-2z"/><path d="m56.57 55a2 2 0 1 0 2 2 2 2 0 0 0 -2-2z"/><path d="m56.57 63.86a2 2 0 1 0 2 2 2 2 0 0 0 -2-2z"/><path d="m56.57 72.72a2 2 0 1 0 2 2 2 2 0 0 0 -2-2z"/><path d="m56.57 81.58a2 2 0 1 0 2 2 2 2 0 0 0 -2-2z"/><path d="m47.71 55a2 2 0 1 0 2 2 2 2 0 0 0 -2-2z"/><path d="m47.71 63.86a2 2 0 1 0 2 2 2 2 0 0 0 -2-2z"/><path d="m47.71 72.72a2 2 0 1 0 2 2 2 2 0 0 0 -2-2z"/><path d="m47.71 81.58a2 2 0 1 0 2 2 2 2 0 0 0 -2-2z"/><path d="m65.43 55a2 2 0 1 0 2 2 2 2 0 0 0 -2-2z"/><path d="m65.43 63.86a2 2 0 1 0 2 2 2 2 0 0 0 -2-2z"/><path d="m65.43 72.72a2 2 0 1 0 2 2 2 2 0 0 0 -2-2z"/><path d="m65.43 81.58a2 2 0 1 0 2 2 2 2 0 0 0 -2-2z"/><path d="m80 31.59v-4.23h-2v4.23h-34.56v-4.23h-2v4.23h-15v64.05h69.13v-64zm-38.51 2v3.19h2v-3.19h34.51v3.19h2v-3.19h13.57v11.31h-65.14v-11.31zm-13 60.05v-46.74h65.08v46.74z"/><path d="m85.48 73.05a1 1 0 0 0 -1.41.14l-7.25 8.86-3-3a1 1 0 0 0 -1.41 0 1 1 0 0 0 0 1.42l3.83 3.83a1 1 0 0 0 .7.29 1 1 0 0 0 .73-.37l8-9.72a1 1 0 0 0 -.19-1.45z"/></g></svg>

<svg xmlns="http://www.w3.org/2000/svg" viewBox="0 0 122 122"><defs><style>.cls-1{fill:#fff;}</style></defs><title>Week 22_Icons</title><g id="Content"><path class="cls-1" d="M38.86,63.86a2,2,0,1,0,2,2A2,2,0,0,0,38.86,63.86Z"/><path class="cls-1" d="M38.86,72.72a2,2,0,1,0,2,2A2,2,0,0,0,38.86,72.72Z"/><path class="cls-1" d="M38.86,81.58a2,2,0,1,0,2,2A2,2,0,0,0,38.86,81.58Z"/><path class="cls-1" d="M74.29,55a2,2,0,1,0,2,2A2,2,0,0,0,74.29,55Z"/><path class="cls-1" d="M74.29,63.86a2,2,0,1,0,2,2A2,2,0,0,0,74.29,63.86Z"/><path class="cls-1" d="M83.14,55a2,2,0,1,0,2,2A2,2,0,0,0,83.14,55Z"/><path class="cls-1" d="M83.14,63.86a2,2,0,1,0,2,2A2,2,0,0,0,83.14,63.86Z"/><path class="cls-1" d="M56.57,55a2,2,0,1,0,2,2A2,2,0,0,0,56.57,55Z"/><path class="cls-1" d="M56.57,63.86a2,2,0,1,0,2,2A2,2,0,0,0,56.57,63.86Z"/><path class="cls-1" d="M56.57,72.72a2,2,0,1,0,2,2A2,2,0,0,0,56.57,72.72Z"/><path class="cls-1" d="M56.57,81.58a2,2,0,1,0,2,2A2,2,0,0,0,56.57,81.58Z"/><path class="cls-1" d="M47.71,55a2,2,0,1,0,2,2A2,2,0,0,0,47.71,55Z"/><path class="cls-1" d="M47.71,63.86a2,2,0,1,0,2,2A2,2,0,0,0,47.71,63.86Z"/><path class="cls-1" d="M47.71,72.72a2,2,0,1,0,2,2A2,2,0,0,0,47.71,72.72Z"/><path class="cls-1" d="M47.71,81.58a2,2,0,1,0,2,2A2,2,0,0,0,47.71,81.58Z"/><path class="cls-1" d="M65.43,55a2,2,0,1,0,2,2A2,2,0,0,0,65.43,55Z"/><path class="cls-1" d="M65.43,63.86a2,2,0,1,0,2,2A2,2,0,0,0,65.43,63.86Z"/><path class="cls-1" d="M65.43,72.72a2,2,0,1,0,2,2A2,2,0,0,0,65.43,72.72Z"/><path class="cls-1" d="M65.43,81.58a2,2,0,1,0,2,2A2,2,0,0,0,65.43,81.58Z"/><path class="cls-1" d="M80,31.59V27.36H78v4.23H43.44V27.36h-2v4.23h-15V95.64H95.57v-64Zm-38.51,2v3.19h2V33.59H78v3.19h2V33.59H93.57V44.9H28.43V33.59Zm-13,60.05V46.9H93.57V93.64Z"/><path class="cls-1" d="M85.48,73.05a1,1,0,0,0-1.41.14l-7.25,8.86-3-3a1,1,0,0,0-1.41,0,1,1,0,0,0,0,1.42l3.83,3.83a1,1,0,0,0,.7.29h0a1,1,0,0,0,.73-.37l8-9.72A1,1,0,0,0,85.48,73.05Z"/></g></svg>
